X:1
T:See with ivy chaplet bound
T:John Wall Callcott (1766-1821) Accompaniment added by William Horsley (1774-1858)
T:Author of lyrics unknown.
T:See with ivy chaplet bound
T:A glee
T:Copyright © 
T:Copyright © 
T:Copyright © 
T:Copyright © 
T:Copyright © 
T:Copyright © 
T:Copyright © 
T:Copyright © 
T:Copyright © 
T:Copyright © 
T:Copyright © 
C:John Wall Callcott (1766-1821)
C:Accompaniment added by William Horsley (1774-1858)
Z:Author of lyrics unknown.
Z:Copyright ©
%%score [ 1 2 ( 3 4 ) ] { ( 5 7 ) | ( 6 8 ) }
L:1/8
Q:1/4=160
M:4/4
K:F
V:1 treble nm="Counter tenor" snm="Ct."
V:2 treble-8 transpose=-12 nm="Tenor" snm="T."
V:3 bass nm="Bass" snm="B."
V:4 bass 
V:5 bass nm="Piano" snm="Pno."
V:7 bass 
V:6 bass 
V:8 bass 
V:1
"^With great animation"!f! !wedge!C4 !wedge!F4 | !wedge!C4 z2 B,A, | G,F, G,A, B,A, B,C | %3
w: See! See!|See! with _|i- * vy _ chap- * let _|
 D4 z2 D2 | (CB,CD C2) F2 | (DCDE D2) F2 | (C3 D/C/ B,2) A,2 | (A,4 G,2) z2 | C4 E E3 | D4 z2 D2 | %10
w: bound, And|wreaths _ _ _ _ of|ver- * * * * nal|ro- * * * ses|crown'd, _|See Bac- chus|comes and|
 D6 EF | E4 z4 | z2 E2 F2 ED | E4 z4 | z2 G2 A2 GF | G4{F} E2{D} C2 | G2 D2{F} E2{D} C2 | G8- | %18
w: brings a- *|long|and cheer- ful _|song,|and cheer- ful _|song, * *|mirth and * *|song,|
 G8- | G4 G2 G2 | A2 GF E2 D2 | C4!p! C4- | C2 DA, B,4- | B,2 CG, A,2 z2 | z2 DC B,C B,A, | %25
w: _|* bloom- ing|mirth and _ cheer- ful|song, bloom-|* ing, _ bloom-|* ing _ mirth|and _ cheer _ ful _|
 G,2 C2 C2 C2 | C2 C2 C2 C2 | C8 ::[M:3/4]"^Slower"!p![Q:1/4=80][Q:1/4=80] C>B, | A,2 z2 F2 | %30
w: song and cheer- ful|song, and cheer- ful|song.|But, _|ah! no|
 G,4 A,2 | B,A,G,D CB, |{B,} A,4 F>E | D4 B2 | C4 A2 | B,CDC B,A, |{A,} G,4 z2 |!f! E2 z2 F>E | %38
w: myr- tle|there _ _ _ is _|_ no _|lau- rel|spreads a|last- * * * ing _|_|Say, does A-|
 (D2 G2) F2 | (E/D/E/F/ AG) FE |{E} D4"^dolce" G2 | (G3/2F/4G/4 A2) G2 | (F3/2E/4F/4 G2) F2 | %43
w: pol- * lo|fly * * * * * the *|* or|love- * * * ly|Ve- * * * nus|
 (E3/2D/4E/4 F2) E2 |{E} D4 z2 | z2 z D G>D | _E3 E D>C | !fermata!D4!f! D2 | E4 F2 | (G2 FE) DC | %50
w: wine _ _ _ dis-||or love- ly|Ve- nus wine dis-|dain? Be-|hold the|mu- * * ses _|
 (A2 BA) GF |{F} E4 E2 |!p! (F3/2E/4F/4 B,2) A,2 | (G,2 D2) C2 | (CD/B,/ A,2) G,2 | F,6 || %56
w: now _ _ ap- *|* And|will _ _ _ ing|Beau- * ty|sighs _ _ _ sin-|cere.|
[M:4/4]"^In the first time"!f![Q:1/4=160][Q:1/4=160] E4 C4 | F4 z2 A,2 | (C2 B,2) (A,2 G,2) | %59
w: Hap- pier|far than|gods * a- *|
 A,4 z2 F,2 | F6 E2 | D6 C2 | B,4 A,4 | G,4 z4 | C4 E4 | D4 G4 | (F2 E2) (D2 C2) | =B,4 z4 | %68
w: bove, we|fill to|Har- mo-|ny and|Love;|Hap- pier|far than|men _ be- *|low,|
 G6 G2 | G2 G2 G2 G2 | G4 C4 | A6 G2 | F2 G2 F2 E2 | D4 G2 F2 | E4 F4 | E4 D4 | C8 | C4 F4 | %78
w: now with|spark- ling wine we|glow, now|now with|spark- ling wine we|glow, now with|spark- ling|wine we|glow;|Hap- pier|
 C6 B,A, | (G,F,G,A, B,A,) B,C | D8 | (CB,CD C2) F2 | (DCDE D2) F2 | C2 C2 B,2 A,2 | %84
w: still our *|lot _ _ _ _ _ shall *|be,|Blessed _ _ _ _ with|these, _ _ _ _ with|these, with these and|
 A,3 G, G,2 z2 | A,4 F,4 | C4 z4 | z2 C2 F2 _E2 | D3 C D2 z2 | =B,4 G,4 | D4 z4 | z2 D2 G2 F2 | %92
w: Li- ber- ty,|Hap- pier|still|with these and|li- ber- ty,|hap- pier|still|with these and|
 E3 D E2 z2 | F4 A4 | G4 F4 | (B2 A2) (G2 F2) | E4"^cresc." C3 C | F8- | F4 F4 | F4 F4 | F8 | E8 | %102
w: li- ber- ty,|hap- pier|still our|lot _ shall _|be, blessed with|these,|_ with|these and|Li-|ber-|
 F8 :| %103
w: ty.|
V:2
!f! !wedge!A4 !wedge!c4 | !wedge!A4 z2 GF | ED EF GF GA | B4 z2 B2 | (AGAB A2) A2 | (BABc B2) d2 | %6
w: See! See!|See! with _|i- * vy _ chap- * let _|bound, And|wreaths _ _ _ _ of|ver- * * * * nal|
 (A3 B/A/ G2) F2 | (F4 E2) z2 | G4 c c3 | =B4 z2 B2 | G4 =B4 | c4 G2 G2 | G4 z4 | z8 | %14
w: ro- * * * ses|crown'd, _|See Bac- chus|comes and|brings a-|long Bloom- ing|mirth||
 z2 e2 f2 ed | e4 z4 | z8 | z4 c2 d2 | e2 d2 c2 c2 | =B4 c2 c2 | c2 ed c2 =B2 | c4 z4 |!p! F6 GD | %23
w: and cheer- ful _|song,||bloom- ing|mirth and cheer- ful|song, bloom- ing|mirth and * cheer- ful|song,|bloom- ing, _|
 E4 FG AF | dc BA GA GF | E2 c2 B2 A2 | G2 A2 G2 F2 | E8 ::[M:3/4]!p! A>G | F2 z2 F2 | F4 F2 | %31
w: bloom- * * ing _|mirth _ and _ cheer- * ful _|song, and cheer- ful|song, and cheer- ful|song.|But, _|ah! no|myr- tle|
 F4 E2 |{G} F4 c2 | c4 B2 | B4 A2 | A2 G3 F |{F} E4!f! z2 | c2 z2 d>c | (=B2 e2) d2 | %39
w: there is|* no|lau- rel|spreads a|last- * ing||Say, does A-|pol- * lo|
 (c/=B/c/d/ fe) dc |{c} =B4"^dolce" e2 | (e3/2d/4e/4 f2) e2 | (d3/2^c/4d/4 e2) d2 | %43
w: fly * * * * * the *|* or|love- * * * ly|Ve- * * * nus|
 (c3/2=B/4c/4 d2) c2 |{c} =B4 z2 | z2 z =B d>B | c3 c =B>A | !fermata!=B4!f! B2 | c4 c2 | c4 c2 | %50
w: wine _ _ _ dis-||or love- ly|Ve- nus wine dis-|dain? Be-|hold the|mu- ses|
 (c2 dc) BA |{A} G4 G2 |!p! (F2 G2) F2 | (D2 B2) A2 | (AB/G/ F2) E2 | F6 ||[M:4/4]!f! c4 c4 | %57
w: now _ _ ap- *|* And|will _ ing|Beau- * ty|sighs * * * sin-|cere.|Hap- pier|
 c4 z2 F2 | (A2 G2) (F2 E2) | F4 z2 F2 | (F2 G2) A4 | (D2 E2) F4 | E4 F4 | E4 z4 | G4 c4 | =B4 B4 | %66
w: far than|gods * a- *|bove, we|fill * to|Har- * mo-|ny and|Love;|Hap- pier|far than|
 c4 A4 | G4 z4 | e4 z2 d2 | e2 d2 e2 d2 | e4 z4 | f6 e2 | d2 e2 d2 c2 | =B4 d2 B2 | c4 d4 | %75
w: men be-|low,|now with|spark- ling wine we|glow,|now with|spark- ling wine we|glow, now with|spark- ling|
 c4 =B4 | c8 | A4 c4 | A6 GF | (EDEF GF) GA | B8 | (AGAB A2) A2 | (BABc B2) d2 | A2 A2 G2 F2 | %84
w: wine we|glow;|Hap- pier|still our *|lot _ _ _ _ _ shall *|be,|Blessed _ _ _ _ with|these, _ _ _ _ with|these, with these and|
 F3 E E2 z2 | z8 | z4 G3 B | A4 z2 A2 | B3 A B2 z2 | z8 | z4 A3 c | =B4 z2 B2 | c3 =B c2 z2 | %93
w: Li- ber- ty,||blessed with|these, and|li- ber- ty,||blessed with|these, and|li- ber- ty,|
 A4 c4 | B4 A4 | (d2 c2) (B2 A2) | G4 z4 |"^cresc." z4 A3 A | d4 B4 | c4 d4 | A8 | G8 | A8 :| %103
w: hap- pier|still our|lot _ shall _|be,|blessed with|these, with|these and|Li-|ber-|ty.|
V:3
!f! !wedge!F,4 !wedge!A,4 | x4 z2 F,2 | C,2 C,2 C,2 C,2 | B,,4 z2 B,,2 | F,8- | F,6 F,2 | %6
w: See! See!||i- vy chap- let|bound, And|wreaths|_ of|
 F,2 F,2 B,,2 =B,,2 | C,6 z2 | E,4 C, C,3 | G,4 z2 G,2 | =B,4 G,4 | C4 z4 | z2 C2 D2 C=B, | %13
w: ver- nal ro- ses|crown'd,|See Bac- chus|comes and|brings a-|long|and cheer- ful _|
 C4 C2 C2 | C4 z4 | z8 | z8 | z4 E,2 G,2 | C2 G,2 E,2 C,2 | G,4 E,2 C,2 | F,2 D,2 G,2 G,,2 | %21
w: song, bloom- ing|mirth|||bloom- ing|mirth and cheer- ful|song, bloom- ing|mirth and cheer- ful|
 C,4 z4 |!p! D,6 B,,2 | C,6 F,2 | B,,6 B,,2 | C,2 A,2 G,2 F,2 | E,2 F,2 E,2 D,2 | C,8 :: %28
w: song,|bloom- ing|mirth and|cheer- ful|song, and cheer- ful|song, and cheer- ful|song.|
[M:3/4]!p! C,2 | F,2 z2 A,,2 | B,,4 C,2 | D,2 B,,2 C,2 | F,4 A,2 | B,CB,A, G,F, | E,C,D,E, F,2 | %35
w: But,|ah! no|myr- tle|there _ is|seen, no|lau- * * * rel _|spreads _ _ _ a|
 (G,2 E,2) F,2 | C,4 z2 |!f! C,2 z2 C,>C, | G,4 G,2 | (A,2 F,3) ^F, | G,4 z2 | z6 | z6 | z6 | z6 | %45
w: last- * ing|green!|Say, does A-|pol- lo|fly _ the|train?|||||
 z2 z G, G,>G, | C,3 C, C,>C, | !fermata!G,4!f! G,2 | C4 A,2 | E,4 E,2 | F,4 B,,2 | C,4 C,2 | %52
w: or love- ly|Ve- nus wine dis-|dain? Be-|hold the|mu- ses|now ap-|pear, And|
!p! (D,2 E,2) F,2 | (B,,2 G,,2) A,,2 | B,,2 C,4 | [F,,F,]6 ||[M:4/4]!f! C,4 C4 | A,4 F,4 | %58
w: will _ ing|Beau- * ty|sighs sin-|cere.|Hap- pier|far than|
 B,,4 C,4 | F,4 z2 F,2 | D,6 C,2 | B,,6 [A,,A,]2 | [G,,G,]4 [F,,F,]4 | C,4 z4 | E,4 C,4 | G,6 G,2 | %66
w: gods a-|bove, we|fill to|Har- mo-|ny and|Love;|Hap- pier|far than|
 C4 F,4 | G,4 z4 | C4 z2 G,2 | C2 =B,2 C2 B,2 | C4 z4 | F,6 F,2 | F,2 F,2 F,2 F,2 | G,4 =B,2 G,2 | %74
w: men be-|low,|now with|spark- ling wine we|glow,|now with|spark- ling wine we|glow, now with|
 C4 F,4 | G,4 G,,4 | C,8 | F,4 A,4 | F,4 z2 C,2 | C,6 C,2 | B,,8 | F,6 F,2 | F,6 F,2 | %83
w: spark- ling|wine we|glow;|Hap- pier|still our|lot shall|be,|Blessed with|these, with|
 F,2 F,2 B,,2 B,,2 | C,3 C, C,2 z2 | z8 | z4 E,3 G, | F,4 z2 F,2 | B,3 B,, B,,2 z2 | z8 | %90
w: these, with these and|Li- ber- ty,||blessed with|these, and|li- ber- ty,||
 z4 ^F,3 A, | G,4 z2 G,2 | C3 C, C,2 z2 | F,4 F,4 | C,4 D,4 | B,,6 B,,2 | C,4 z4 | %97
w: blessed with|these, and|li- ber- ty,|hap- pier|still our|lot shall|be,|
"^cresc." z4 F,3 F, | B,4 G,4 | A,4 B,4 | C8 | C,8 | F,8 :| %103
w: blessed with|these, with|these and|Li-|ber-|ty.|
V:4
 x8 | !wedge!F,4 x2 F,,2 | x8 | x8 | x8 | x8 | x8 | x8 | x8 | x8 | x8 | x8 | x8 | x8 | x8 | x8 | %16
w: |See! with|||||||||||||||
 x8 | x8 | x8 | x8 | x8 | x8 | x8 | x8 | x8 | x8 | x8 | x8 ::[M:3/4] x2 | x6 | x6 | x6 | x6 | x6 | %34
w: ||||||||||||||||||
 x6 | x6 | x6 | x6 | x6 | x6 | x6 | x6 | x6 | x6 | x6 | x6 | x6 | x6 | x6 | x6 | x6 | x6 | x6 | %53
w: |||||||||||||||||||
 x6 | x6 | x6 ||[M:4/4] x8 | x8 | x8 | x8 | x8 | x8 | x8 | x8 | x8 | x8 | x8 | x8 | x8 | x8 | x8 | %71
w: ||||||||||||||||||
 x8 | x8 | x8 | x8 | x8 | x8 | x8 | x8 | x8 | x8 | x8 | x8 | x8 | x8 | x8 | x8 | x8 | x8 | x8 | %90
w: |||||||||||||||||||
 x8 | x8 | x8 | x8 | x8 | x8 | x8 | x8 | x8 | x8 | x8 | x8 | x8 :| %103
w: |||||||||||||
V:5
"^With great animation"!f! !wedge![A,C]4 !wedge![CF]4 | !wedge![A,C]4 z2 ([G,B,][F,A,]) | %2
 ([E,G,][D,F,][E,G,][F,A,]) ([G,B,][F,A,][G,B,][A,C]) | [B,D]4 z2 [B,D]2 | %4
 ([A,C][G,B,][A,C][B,D] [A,C]2) [A,F]2 | ([B,D][A,C][B,D][CE] [B,D]2) [DF]2 | %6
 ([A,C]3 [B,D]/[A,C]/ [G,B,]2) [F,A,]2 | (([F,A,]4 [E,G,]2)) z2 | [G,C]4 [CE] [CE]3 | %9
 [=B,D]4 z2 [B,D]2 | D6 (EF) | E4 x4 | z2 E2 F2 (ED) | E4 z4 | z2 [EG]2 [FA]2 ([EG][DF]) | %15
 [EG]4{F} E2{D} C2 | G2 D2{F} E2{D} C2 | G8- | G8- | G4 G2 G2 | A2 (GF) E2 D2 |!p! C4 C4- | %22
 C2 DA, B,4- | B,2 CG, A,2 z2 | z2 (DC B,CB,A, | G,2) C2 C2 C2 | C4 C4 | C8 :: %28
[M:3/4][K:bass]"^Slower" ([A,C]>[G,B,]) | A,2 z2 F2 | G,4 A,2 | B,A,G,D CB, | %32
{B,} A,4[K:treble] (F>E) | D4 B2 | C4 A2 | (B,CDC) B,A, |{A,} G,4 z2 | [CE]2 z2 ([DF]>[CE]) | %38
 [=B,D]2 [EG]2 [DF]2 | ([CE]/[=B,D]/[CE]/[DF]/ [FA][EG]) ([DF][CE]) |{C} [=B,DE] x3"^dolce" [EG]2 | %41
 ([EG]3/2[DF]/4[EG]/4 [FA]2 [EG]2) | ([DF]3/2[^CE]/4[DF]/4 [EG]2 [DF]2) | %43
 ([CE]3/2[=B,D]/4[CE]/4 [DF]2 [CE]2) |{C} [=B,DE] x3 z2 | z2 z [=B,D] ([DF]>[B,D]) | %46
 [C_E]3 [CE] ([=B,D]>[A,C]) | !fermata![=B,D]4 [B,D]2 | [CE]4 [CF]2 | G2 FEDC | A2 BAGF | %51
{F} E4[K:bass] E2 | (F3/2E/4F/4 B,2) A,2 | (G,2 D2 C2) | (CD/B,/) (A,2 G,2 | F,6) || %56
[M:4/4]"^In the first time" [CE]4 C4 | F4 z2 A,2 | ([A,C]2 [G,B,]2) ([F,A,]2 [E,G,]2) | %59
 A,4 z2 F,2 | F6 E2 | D6 C2 | B,4 A,4 | G,4 x4 | C4 E4 | D4 G4 | F2 E2 D2 C2 | =B,4 x4 | G6 G2 | %69
 G4 G4 | G4 C4 | A6 G2 | F2 G2 F2 E2 | D4 G2 F2 | E4 F4 | E4 D4 | C8 | [A,C]4 [CF]4 | %78
 [A,C]6 [G,B,][F,A,] | ([E,G,][D,F,][E,G,][F,A,]) ([G,B,][F,A,][G,B,][A,C]) | [B,D]8 | %81
 ([A,C][G,B,][A,C][B,D] [A,C]2) [A,F]2 | ([B,D][A,C][B,D][CE] [B,D]2) [DF]2 | %83
 [A,C]2 [A,C]2 [G,B,]2 [F,A,]2 | [F,A,]3 [E,G,] [E,G,]2 z2 | A,4 F,4 | C4 z4 | z2 C2 F2 _E2 | %88
 [B,D]3 [A,C] [B,D]2 z2 | =B,4 G,4 | D4 z4 | z2 D2 G2 F2 | [CE]3 [=B,D] [CE]2 z2 | [A,F]4 [CA]4 | %94
 [B,G]4 [A,F]4 | [DB]2 [CA]2 [B,G]2 [A,F]2 | [G,E]4"^cresc." C3 C | F8- | F4 F4 | F4 F4 | [CF]8 | %101
 [CE]8 | [A,CF]8 :| %103
V:6
 !wedge!F,4 !wedge!A,4 | !wedge!F,4 z2 F,2 | C,4 C,4 | B,,4 z2 B,,2 | F,8- | F,6 F,2 | %6
 F,4 B,,2 =B,,2 | C,6 z2 | E,4 C, C,3 | G,4 z2 G,2 | G,4 G,4 | C4 G,2 G,2 | z2 C2 D2 C=B, | %13
 C4 C2 C2 | C4 z4 | z8 | z8 | z4 E,2 G,2 | C2 G,2 E,2 C,2 | G,4 E,2 C,2 | F,2 D,2 G,2 G,,2 | %21
 C,4 z4 | F,6 G,D, | E,4 F,G,A,F, | DC B,A, G,A,G,F, | E,2 x2 B,2 A,2 | %26
 [E,G,]2 [F,A,]2 [E,G,]2 [D,F,]2 | [C,E,]8 ::[M:3/4]!p! C,2 | F,2 z2 A,,2 | B,,4 C,2 | %31
 D,2 B,,2 C,2 | F,4 A,2 | B,C B,A, G,F, | x4 A,2- | A,2 G,3 F, |{F,} E,4 z2 |!f! C,2 z2 C,2 | %38
 G,4 G,2 | A,2 F,3 ^F, | G,4 z2 | z6 | z6 | z6 | z6 | z2 z G, G,2 | C,3 C, C,2 | %47
 !fermata!G,4!f! G,2 | C4 A,2 | E,4 E,2 | F,4 B,,2 | C,4 C,2 |!p! [D,F,]2 [E,G,]2 F,2 | D,2 x2 x2 | %54
 B,,2 C,4 | F,,6 ||[M:4/4]!f! C,4 C4 | A,4 F,4 | B,,4 C,4 | F,4 z2 F,2 | D,6 C,2 | B,,6 A,,2 | %62
 G,,4 F,,4 | C,4 z4 | E,4 C,4 | G,6 G,2 | C4 F,4 | G,4 z4 | C4 z2 G,2 | C2 =B,2 C2 B,2 | C4 z4 | %71
 F,6 F,2 | F,4 F,4 | G,4 =B,2 G,2 | C4 F,4 | G,4 G,,4 | C,8 | F,4 A,4 | F,4 z2 C,2 | C,6 C,2 | %80
 B,,8 | F,6 F,2 | F,6 F,2 | F,4 B,,4 | C,6 z2 | z8 | z4 [E,G,]3 [G,B,] | [F,A,]4 z2 [F,A,]2 | %88
 B,3 B,, B,,2 z2 | z8 | z4 [^F,A,]3 [A,C] | [G,=B,]4 z2 [G,B,]2 | C3 C, C,2 z2 | F,4 F,4 | %94
 C,4 D,4 | B,,6 B,,2 | C,4 z4 | z4 [F,A,]3 [F,A,] | B,4 G,4 | A,4 B,4 | [C,A,]8 | [C,G,]8 | %102
 [F,,F,]8 :| %103
V:7
 x8 | x8 | x8 | x8 | x8 | x8 | x8 | x8 | x8 | x8 | =B,4 B,4 | C4 z4 | x8 | x8 | x8 | x8 | x8 | %17
 z4 C2 D2 | E2 D2 C2 C2 | =B,4 C4- | C2 ED C2 =B,2 | C4 z4 | x8 | x8 | x8 | x8 | x8 | x8 :: %28
[M:3/4][K:bass] x2 | F,2 x2 F,2- | F,6- | F,4 E,2 |{G,} F,4[K:treble] C2- | C4 B,2 | B,4 x2 | x6 | %36
 x6 | x6 | x6 | x6 | x6 | x6 | x6 | x6 | x6 | x6 | x6 | x6 | x6 | C6- | C2 DCB,A, | %51
{A,} G,4[K:bass] G,2 | x6 | x6 | x6 | x6 ||[M:4/4] x8 | C4 x2 F,2 | x8 | F,4 x2 F,2 | F,2 G,2 A,4 | %61
 D,2 E,2 F,4 | E,4 F,4 | E,4 z4 | G,4 C4 | =B,4 B,4 | C4 A,4 | G,4 z4 | E4 z2 D2 | E2 D2 E2 D2 | %70
 E4 x4 | F6 E2 | D2 E2 D2 C2 | =B,4 D2 B,2 | C4 D4 | C4 =B,4 | C8 | x8 | x8 | x8 | x8 | x8 | x8 | %83
 x8 | x8 | x8 | x8 | x8 | x8 | x8 | x8 | x8 | x8 | x8 | x8 | x8 | x8 | x8 | D4 B,4 | C4 D4 | x8 | %101
 x8 | x8 :| %103
V:8
 x8 | x8 | x8 | x8 | x8 | x8 | x8 | x8 | x8 | x8 | x8 | x8 | x8 | x8 | x8 | x8 | x8 | x8 | x8 | %19
 x8 | x8 | x8 | D,6 B,,2 | C,6 F,2 | B,,6 B,,2 | C,2 A,2 G,2 F,2 | x8 | x8 ::[M:3/4] x2 | x6 | x6 | %31
 x6 | x6 | x6 | E,C, D,E, F,2 | G,2 E,2 F,2 | C,4 x2 | x6 | x6 | x6 | x6 | x6 | x6 | x6 | x6 | x6 | %46
 x6 | x6 | x6 | x6 | x6 | x6 | x6 | B,,2 G,,2 A,,2 | x6 | x6 ||[M:4/4] x8 | x8 | x8 | x8 | x8 | %61
 x8 | x8 | x8 | x8 | x8 | x8 | x8 | x8 | x8 | x8 | x8 | x8 | x8 | x8 | x8 | x8 | x8 | x8 | x8 | %80
 x8 | x8 | x8 | x8 | x8 | x8 | x8 | x8 | x8 | x8 | x8 | x8 | x8 | x8 | x8 | x8 | x8 | x8 | x8 | %99
 x8 | x8 | x8 | x8 :| %103

